X: 38793
T: Suaimhneas Intinne
R: barndance
M: 4/4
K: Dminor
|c3B def2|B2B2 B3E|F2B2 d2ed|f2B2 G2A2|
e2f2 d2c2|A4- A2(3AGF|A8-|A8||

